X: 20
T: Toss The Feathers
Z: tziguk
S: https://thesession.org/tunes/113#setting53479
R: reel
M: 4/4
L: 1/8
K: Edor
|:EB (3BBB dB (3BBB|EBBA F3A|BE (3EEE BA Bd|e/f/g fe dBAF:|
Beed e2 de|fede fe e2|febe febe|fede fee2|
Beed e2 de|fede fa a2|b3f a3f|egfe dBAF||

%-------------------- TUNE SEPARATOR --------------------%

